assets/imgs/list_6.svg

<svg width="30" height="30" viewBox="0 0 30 30" fill="none" xmlns="http://www.w3.org/2000/svg">
<path d="M3.87256 12.2995L1.00009 9.1875" stroke="#4B4B4B" stroke-width="2" stroke-linecap="round"/>
<path d="M3.87256 20.5967L1.00009 22.6714" stroke="#4B4B4B" stroke-width="2" stroke-linecap="round"/>
<path d="M4.11218 16.2573H1.00022" stroke="#4B4B4B" stroke-width="2" stroke-linecap="round"/>
<path d="M12.1478 16.4141C12.1478 18.0387 12.4757 19.56 13.2426 20.648C13.969 21.6786 15.1693 22.4375 17.2292 22.4375C17.8046 22.4375 18.4258 22.4581 19.0544 22.479C19.0899 22.4801 19.1255 22.4813 19.161 22.4825C19.8326 22.5047 20.5179 22.5262 21.2079 22.5259C22.5956 22.5253 23.9392 22.4352 25.1122 22.1119C26.2738 21.7918 27.2142 21.2583 27.8742 20.4034C28.534 19.5488 29 18.2611 29 16.2686C29 14.4419 28.5425 13.2533 27.8904 12.4527C27.232 11.6443 26.2862 11.122 25.1122 10.7985C23.9315 10.4731 22.5815 10.3659 21.1947 10.347C20.5052 10.3376 19.8197 10.35 19.1506 10.3652C19.0451 10.3676 18.9398 10.37 18.8348 10.3725C18.2804 10.3855 17.7357 10.3982 17.2292 10.3982C15.1684 10.3982 13.9683 11.1559 13.2422 12.1845C12.4757 13.2705 12.1478 14.7895 12.1478 16.4141Z" fill="white" stroke="#4B4B4B" stroke-width="2"/>
<path d="M7.18673 15.4108C7.18673 17.0141 7.6383 18.4222 8.31669 19.4021C8.99779 20.3859 9.83965 20.8603 10.6517 20.8603C11.4638 20.8603 12.3056 20.3859 12.9867 19.4021C13.6651 18.4222 14.1167 17.0141 14.1167 15.4108C14.1167 13.8076 13.6651 12.3995 12.9867 11.4196C12.3056 10.4358 11.4638 9.96143 10.6517 9.96143C9.83965 9.96143 8.99779 10.4358 8.31669 11.4196C7.6383 12.3995 7.18673 13.8076 7.18673 15.4108Z" fill="white" stroke="#4B4B4B" stroke-width="2"/>
<path d="M11.4405 24.5219C10.6973 18.5428 11.0939 11.5517 11.5065 6.92213C11.6318 5.51676 13.1488 4.71028 14.3981 5.36602L21.3637 9.02209C22.0219 9.36757 22.4342 10.0496 22.4342 10.793V21.6793C22.4342 22.5292 21.897 23.2863 21.0948 23.5671L13.9919 26.0525C12.8363 26.4568 11.5916 25.7368 11.4405 24.5219Z" fill="white" stroke="#4B4B4B" stroke-width="2" stroke-linecap="round"/>
</svg>

<svg width="30" height="30" fill="none" xmlns="http://www.w3.org/2000/svg"><path d="M3.873 12.3 1 9.187M3.873 20.597 1 22.67M4.112 16.257H1" stroke="#4B4B4B" stroke-width="2" stroke-linecap="round"/><path d="M12.148 16.414c0 1.625.328 3.146 1.095 4.234.726 1.03 1.926 1.79 3.986 1.79a56.416 56.416 0 0 1 1.932.045c.672.022 1.357.043 2.047.043 1.388 0 2.731-.09 3.904-.414 1.162-.32 2.102-.854 2.762-1.709.66-.854 1.126-2.142 1.126-4.134 0-1.827-.457-3.016-1.11-3.816-.658-.809-1.604-1.331-2.778-1.654-1.18-.326-2.53-.433-3.917-.452a56.21 56.21 0 0 0-2.36.026c-.555.013-1.1.025-1.606.025-2.06 0-3.26.758-3.987 1.787-.766 1.085-1.094 2.604-1.094 4.23z" fill="#fff" stroke="#4B4B4B" stroke-width="2"/><path d="M7.187 15.41c0 1.604.451 3.012 1.13 3.992.68.984 1.523 1.458 2.335 1.458s1.654-.474 2.335-1.458c.678-.98 1.13-2.388 1.13-3.991 0-1.603-.452-3.011-1.13-3.991-.681-.984-1.523-1.459-2.335-1.459s-1.654.475-2.335 1.459c-.679.98-1.13 2.388-1.13 3.99z" fill="#fff" stroke="#4B4B4B" stroke-width="2"/><path d="M11.44 24.522c-.743-5.98-.346-12.97.067-17.6.125-1.405 1.642-2.212 2.891-1.556l6.966 3.656a2 2 0 0 1 1.07 1.771v10.886a2 2 0 0 1-1.34 1.888l-7.102 2.485c-1.156.405-2.4-.315-2.552-1.53z" fill="#fff" stroke="#4B4B4B" stroke-width="2" stroke-linecap="round"/></svg>
